svgs/thin/circle-g.svg

<svg xmlns="http://www.w3.org/2000/svg" viewBox="0 0 512 512"><!--! Font Awesome Pro 6.3.0 by @fontawesome - https://fontawesome.com License - https://fontawesome.com/license (Commercial License) Copyright 2023 Fonticons, Inc. --><path d="M376 255.5H288c-4.406 0-8 3.578-8 8s3.594 8 8 8h79.69c-.8125 9.75-3.062 18.75-6.781 26.84C355.2 310.9 346.6 323.1 336 333.9c-41.13 41.67-108 44.89-152.4 7.078C159.4 320.3 145.3 291.6 144.1 260C142.8 228.8 154.8 198.3 176.8 176.3c42.06-42 109.6-43.92 153.8-4.297c3.312 2.984 8.375 2.703 11.31-.6094c2.938-3.297 2.656-8.359-.625-11.3c-50.59-45.3-127.8-43.13-175.8 4.891C140.3 190.2 126.7 225 128.1 260.6c1.469 36.09 17.5 68.95 45.16 92.52c23.75 20.22 53.13 30.2 82.5 30.2c33.34 0 66.69-12.88 91.63-38.25c11.88-12.05 21.59-25.92 28.09-40.11C381.1 292.7 384 278.7 384 263.5C384 259.1 380.4 255.5 376 255.5zM256 0C114.6 0 0 114.6 0 256s114.6 256 256 256s256-114.6 256-256S397.4 0 256 0zM256 496c-132.3 0-240-107.7-240-240S123.7 16 256 16s240 107.7 240 240S388.3 496 256 496z"/></svg>

<svg xmlns="http://www.w3.org/2000/svg" viewBox="0 0 512 512"><!-- Font Awesome Pro 6.0.0-alpha2 by @fontawesome - https://fontawesome.com License - https://fontawesome.com/license (Commercial License) --><path d="M376 255.5H288C283.594 255.5 280 259.078 280 263.5S283.594 271.5 288 271.5H367.688C366.875 281.25 364.625 290.25 360.906 298.344C355.188 310.859 346.562 323.141 336 333.891C294.875 375.562 227.969 378.781 183.625 340.969C159.406 320.344 145.344 291.594 144.094 260C142.844 228.844 154.781 198.328 176.812 176.297C218.875 134.297 286.406 132.375 330.656 172C333.969 174.984 339.031 174.703 341.969 171.391C344.906 168.094 344.625 163.031 341.344 160.094C290.75 114.797 213.531 116.969 165.5 164.984C140.312 190.156 126.688 225.031 128.094 260.641C129.562 296.734 145.594 329.594 173.25 353.156C197 373.375 226.375 383.359 255.75 383.359C289.094 383.359 322.438 370.484 347.375 345.109C359.25 333.063 368.969 319.188 375.469 305C381.125 292.656 384 278.688 384 263.5C384 259.078 380.406 255.5 376 255.5ZM256 16C123.451 16 16 123.451 16 256S123.451 496 256 496S496 388.549 496 256S388.549 16 256 16ZM256 480C132.486 480 32 379.514 32 256S132.486 32 256 32S480 132.486 480 256S379.514 480 256 480Z"/></svg>
